img/smartwatch.svg

<svg width="470" height="470" xmlns="http://www.w3.org/2000/svg">

 <g>
  <title>background</title>
  <rect fill="none" id="canvas_background" height="402" width="582" y="-1" x="-1"/>
 </g>
 <g>
  <title>Layer 1</title>
  <rect stroke="#000" id="svg_23" height="209.000008" width="211" y="129" x="117.5" fill-opacity="null" stroke-opacity="null" stroke-width="1.5" fill="#A8FFE9"/>
  <rect stroke="#000" id="svg_24" height="51" width="25" y="211" x="365.5" fill-opacity="null" stroke-opacity="null" stroke-width="1.5" fill="#A8FFE9"/>
  <g id="svg_1">
   <g id="svg_2">
    <g id="svg_3">
     <path id="svg_4" d="m390,197.5l-22.5,0l0,-72.5c0,-18.643 -13.677,-34.147 -31.523,-37.018l-8.7,-34.801c-0.835,-3.339 -3.835,-5.681 -7.276,-5.681l-25.201,0l-0.6,-10.477c-1.167,-20.414 -18.752,-37.023 -39.2,-37.023l-70,0c-20.448,0 -38.033,16.609 -39.2,37.023l-0.599,10.477l-25.201,0c-3.441,0 -6.441,2.342 -7.276,5.681l-8.7,34.801c-17.847,2.871 -31.524,18.375 -31.524,37.018l0,220c0,18.643 13.677,34.147 31.523,37.018l8.7,34.801c0.835,3.339 3.835,5.681 7.276,5.681l25.201,0l0.598,10.477c1.169,20.414 18.754,37.023 39.202,37.023l70,0c20.448,0 38.033,-16.609 39.2,-37.023l0.598,-10.477l25.202,0c3.441,0 6.441,-2.342 7.276,-5.681l8.7,-34.801c17.847,-2.871 31.524,-18.375 31.524,-37.018l0,-72.5l22.5,0c4.143,0 7.5,-3.358 7.5,-7.5l0,-60c0,-4.142 -3.357,-7.5 -7.5,-7.5zm-75.855,-135l6.25,25l-23.311,0l-1.428,-25l18.489,0zm-153.37,-24.621c0.709,-12.402 11.803,-22.879 24.225,-22.879l70,0c12.422,0 23.516,10.477 24.225,22.879l2.835,49.621l-124.12,0l2.835,-49.621zm-34.92,24.621l18.489,0l-1.428,25l-23.311,0l6.25,-25zm0,345l-6.25,-25l23.311,0l1.428,25l-18.489,0zm153.37,24.621c-0.709,12.402 -11.803,22.879 -24.225,22.879l-70,0c-12.422,0 -23.516,-10.477 -24.225,-22.879l-2.835,-49.621l124.12,0l-2.835,49.621zm34.92,-24.621l-18.489,0l1.428,-25l23.311,0l-6.25,25zm38.355,-62.5c0,12.406 -10.094,22.5 -22.5,22.5l-220,0c-12.406,0 -22.5,-10.094 -22.5,-22.5l0,-220c0,-12.401 10.085,-22.491 22.484,-22.5c0.042,0 180.004,0 180.004,0c0.013,0 39.986,0 39.986,0c12.441,0.009 22.526,10.099 22.526,22.5l0,220zm30,-87.5l-15,0l0,-45l15,0l0,45z"/>
     <path id="svg_5" d="m330,117.5l-220,0c-4.143,0 -7.5,3.358 -7.5,7.5l0,220c0,4.142 3.357,7.5 7.5,7.5l40,0c4.143,0 7.5,-3.358 7.5,-7.5c0,-4.142 -3.357,-7.5 -7.5,-7.5l-32.5,0l0,-205l205,0l0,205l-142.5,0c-4.143,0 -7.5,3.358 -7.5,7.5c0,4.142 3.357,7.5 7.5,7.5l150,0c4.143,0 7.5,-3.358 7.5,-7.5l0,-220c0,-4.142 -3.357,-7.5 -7.5,-7.5z"/>
     <path id="svg_6" d="m180,277.5l80,0c4.143,0 7.5,-3.358 7.5,-7.5c0,-4.142 -3.357,-7.5 -7.5,-7.5l-80,0c-4.143,0 -7.5,3.358 -7.5,7.5c0,4.142 3.357,7.5 7.5,7.5z"/>
     <path id="svg_7" d="m180,207.5l80,0c4.143,0 7.5,-3.358 7.5,-7.5c0,-4.142 -3.357,-7.5 -7.5,-7.5l-80,0c-4.143,0 -7.5,3.358 -7.5,7.5c0,4.142 3.357,7.5 7.5,7.5z"/>
    </g>
   </g>
  </g>
  <g id="svg_8"/>
  <g id="svg_9"/>
  <g id="svg_10"/>
  <g id="svg_11"/>
  <g id="svg_12"/>
  <g id="svg_13"/>
  <g id="svg_14"/>
  <g id="svg_15"/>
  <g id="svg_16"/>
  <g id="svg_17"/>
  <g id="svg_18"/>
  <g id="svg_19"/>
  <g id="svg_20"/>
  <g id="svg_21"/>
  <g id="svg_22"/>
 </g>
</svg>

<?xml version="1.0" encoding="iso-8859-1"?>
<!-- Generator: Adobe Illustrator 19.0.0, SVG Export Plug-In . SVG Version: 6.00 Build 0)  -->
<svg version="1.1" id="Layer_1" xmlns="http://www.w3.org/2000/svg" xmlns:xlink="http://www.w3.org/1999/xlink" x="0px" y="0px"
	 viewBox="0 0 470 470" style="enable-background:new 0 0 470 470;" xml:space="preserve">
<g>
	<g>
		<g>
			<path d="M390,197.5h-22.5V125c0-18.643-13.677-34.147-31.523-37.018l-8.7-34.801c-0.835-3.339-3.835-5.681-7.276-5.681H294.8
				l-0.6-10.477C293.033,16.609,275.448,0,255,0h-70c-20.448,0-38.033,16.609-39.2,37.023L145.201,47.5H120
				c-3.441,0-6.441,2.342-7.276,5.681l-8.7,34.801C86.177,90.853,72.5,106.357,72.5,125v220c0,18.643,13.677,34.147,31.523,37.018
				l8.7,34.801c0.835,3.339,3.835,5.681,7.276,5.681H145.2l0.598,10.477C146.967,453.391,164.552,470,185,470h70
				c20.448,0,38.033-16.609,39.2-37.023l0.598-10.477H320c3.441,0,6.441-2.342,7.276-5.681l8.7-34.801
				C353.823,379.147,367.5,363.643,367.5,345v-72.5H390c4.143,0,7.5-3.358,7.5-7.5v-60C397.5,200.858,394.143,197.5,390,197.5z
				 M314.145,62.5l6.25,25h-23.311l-1.428-25H314.145z M160.775,37.879C161.484,25.477,172.578,15,185,15h70
				c12.422,0,23.516,10.477,24.225,22.879L282.06,87.5H157.94L160.775,37.879z M125.855,62.5h18.489l-1.428,25h-23.311L125.855,62.5
				z M125.855,407.5l-6.25-25h23.311l1.428,25H125.855z M279.225,432.121C278.516,444.523,267.422,455,255,455h-70
				c-12.422,0-23.516-10.477-24.225-22.879L157.94,382.5h124.12L279.225,432.121z M314.145,407.5h-18.489l1.428-25h23.311
				L314.145,407.5z M352.5,345c0,12.406-10.094,22.5-22.5,22.5H110c-12.406,0-22.5-10.094-22.5-22.5V125
				c0-12.401,10.085-22.491,22.484-22.5c0.042,0,180.004,0,180.004,0c0.013,0,39.986,0,39.986,0
				c12.441,0.009,22.526,10.099,22.526,22.5V345z M382.5,257.5h-15v-45h15V257.5z"/>
			<path d="M330,117.5H110c-4.143,0-7.5,3.358-7.5,7.5v220c0,4.142,3.357,7.5,7.5,7.5h40c4.143,0,7.5-3.358,7.5-7.5
				c0-4.142-3.357-7.5-7.5-7.5h-32.5v-205h205v205H180c-4.143,0-7.5,3.358-7.5,7.5c0,4.142,3.357,7.5,7.5,7.5h150
				c4.143,0,7.5-3.358,7.5-7.5V125C337.5,120.858,334.143,117.5,330,117.5z"/>
			<path d="M180,277.5h80c4.143,0,7.5-3.358,7.5-7.5c0-4.142-3.357-7.5-7.5-7.5h-80c-4.143,0-7.5,3.358-7.5,7.5
				C172.5,274.142,175.857,277.5,180,277.5z"/>
			<path d="M180,207.5h80c4.143,0,7.5-3.358,7.5-7.5c0-4.142-3.357-7.5-7.5-7.5h-80c-4.143,0-7.5,3.358-7.5,7.5
				C172.5,204.142,175.857,207.5,180,207.5z"/>
		</g>
	</g>
</g>
<g>
</g>
<g>
</g>
<g>
</g>
<g>
</g>
<g>
</g>
<g>
</g>
<g>
</g>
<g>
</g>
<g>
</g>
<g>
</g>
<g>
</g>
<g>
</g>
<g>
</g>
<g>
</g>
<g>
</g>
</svg>
